_includes/icons/ios-water.svg

<svg fill="#666" height="50" viewBox="0 0 50 50" width="50" xmlns="http://www.w3.org/2000/svg"><path d="m24.90625.15625c-.042969.007813-.085937.019531-.125.03125-.222656.046875-.417969.167969-.5625.34375 0 0-4.1875 5.089844-8.375 11.5625s-8.46875 14.242188-8.46875 20.28125c0 9.71875 7.90625 17.625 17.625 17.625s17.625-7.90625 17.625-17.625c0-6.039062-4.28125-13.808594-8.46875-20.28125s-8.375-11.5625-8.375-11.5625c-.210937-.265625-.539062-.40625-.875-.375zm.09375 2.65625c.980469 1.214844 3.976563 4.945313 7.46875 10.34375 4.117188 6.363281 8.15625 14.179688 8.15625 19.21875 0 8.636719-6.988281 15.625-15.625 15.625s-15.625-6.988281-15.625-15.625c0-5.039062 4.039063-12.855469 8.15625-19.21875 3.492188-5.398437 6.488281-9.128906 7.46875-10.34375zm-.75 8.3125c-.253906.050781-.476562.195313-.625.40625 0 0-2.453125 3.15625-4.90625 7.28125s-4.96875 9.15625-4.96875 13.375c0 5.296875 2.492188 8.503906 4.96875 10.21875 2.476563 1.714844 4.96875 2.0625 4.96875 2.0625.367188.089844.75-.035156.996094-.320312.246094-.285157.308594-.6875.164062-1.035157-.144531-.347656-.472656-.585937-.847656-.613281 0 0-2.054687-.285156-4.125-1.71875-2.070312-1.433594-4.125-3.902344-4.125-8.59375 0-3.371094 2.304688-8.367187 4.6875-12.375 2.382813-4.007812 4.75-7.0625 4.75-7.0625.265625-.320312.304688-.777344.097656-1.140625-.210937-.359375-.621093-.554687-1.035156-.484375z"/></svg>

<svg xmlns="http://www.w3.org/2000/svg" viewBox="0 0 50 50" width="50" height="50" fill="#666"><path d="M 24.90625 0.15625 C 24.863281 0.164063 24.820313 0.175781 24.78125 0.1875 C 24.558594 0.234375 24.363281 0.355469 24.21875 0.53125 C 24.21875 0.53125 20.03125 5.621094 15.84375 12.09375 C 11.65625 18.566406 7.375 26.335938 7.375 32.375 C 7.375 42.09375 15.28125 50 25 50 C 34.71875 50 42.625 42.09375 42.625 32.375 C 42.625 26.335938 38.34375 18.566406 34.15625 12.09375 C 29.96875 5.621094 25.78125 0.53125 25.78125 0.53125 C 25.570313 0.265625 25.242188 0.125 24.90625 0.15625 Z M 25 2.8125 C 25.980469 4.027344 28.976563 7.757813 32.46875 13.15625 C 36.585938 19.519531 40.625 27.335938 40.625 32.375 C 40.625 41.011719 33.636719 48 25 48 C 16.363281 48 9.375 41.011719 9.375 32.375 C 9.375 27.335938 13.414063 19.519531 17.53125 13.15625 C 21.023438 7.757813 24.019531 4.027344 25 2.8125 Z M 24.25 11.125 C 23.996094 11.175781 23.773438 11.320313 23.625 11.53125 C 23.625 11.53125 21.171875 14.6875 18.71875 18.8125 C 16.265625 22.9375 13.75 27.96875 13.75 32.1875 C 13.75 37.484375 16.242188 40.691406 18.71875 42.40625 C 21.195313 44.121094 23.6875 44.46875 23.6875 44.46875 C 24.054688 44.558594 24.4375 44.433594 24.683594 44.148438 C 24.929688 43.863281 24.992188 43.460938 24.847656 43.113281 C 24.703125 42.765625 24.375 42.527344 24 42.5 C 24 42.5 21.945313 42.214844 19.875 40.78125 C 17.804688 39.347656 15.75 36.878906 15.75 32.1875 C 15.75 28.816406 18.054688 23.820313 20.4375 19.8125 C 22.820313 15.804688 25.1875 12.75 25.1875 12.75 C 25.453125 12.429688 25.492188 11.972656 25.285156 11.609375 C 25.074219 11.25 24.664063 11.054688 24.25 11.125 Z"/></svg>
